!!!OTL: Das Lied vom Zimmergesellen Es war einmal gut Zimmergesell,
!!!ARE: Europa, Mitteleuropa, Lothringen, Altripp
!!!SCT: D0004
!!!YEM: Copyright 1995, estate of Helmut Schaffrath.
**kern
*ICvox
*Ivox
*M3/4
*k[b-]
*d:
{4dd
=1
4dd
4ccn
4dd
=2
2a
4a
=3
4g
4g
4g
=4
2fn}
{4g
=5
4a
4b-
4ccn
=6
4dd
4ccn
4dd
=7
2a}
{4ccn
=8
4.ccn
8dd
4ccn
=9
4.a
8ccn
4ccn
=10
4.a
8ccn
4ccn
=11
2dd}
{8b-
8a
=12
4.a
8g
4fn
=13
4.g
8fn
4e
=14
2d}
{8a
8ccn
=15
4.ccn
8dd
4ccn
=16
4.a
8ccn
4ccn
=17
4.a
8ccn
4ccn
=18
2dd}
{8b-
8a
=19
4.a
8g
4fn
=20
4.g
8fn
4e
=21
2d}
==
!!!AGN: Ballade, Taten und Verbrechen
!! Laengenwerte in Zeile 263, 265 und 266 berichtigt; Sequenz,
!!    Wiederholungen; Inzipit = Variante zum Lied
!!!ONB: ESAC (Essen Associative Code) Database: DVA
!!!AMT: simple triple
!!!AIN: vox
!!!EED: Helmut Schaffrath
!!!EEV: 1.0
*-
